icons/editor-cursor-5-filled.svg

<svg width="25" height="24" viewBox="0 0 25 24" fill="none" xmlns="http://www.w3.org/2000/svg">
<g id="cursor-05">
<path id="Icon" d="M6.36966 12.4369L5.09152 13.715M4.95796 9.02807H3.15039M5.09152 4.34196L6.36966 5.6201M9.77846 2.40039V4.20796M14.4646 4.34196L13.1864 5.6201M16.768 15.9959L21.3702 14.3893C22.2329 14.0882 22.2663 12.8802 21.4213 12.5448L10.8918 8.87793C10.1002 8.56381 9.30432 9.34026 9.59854 10.1395L13.0464 20.9622C13.3604 21.8151 14.5677 21.8124 14.8909 20.9581L16.768 15.9959Z" stroke="black" stroke-width="2" stroke-linecap="round" stroke-linejoin="round"/>
</g>
</svg>

<svg xmlns="http://www.w3.org/2000/svg" width="25" height="24" fill="none" viewBox="0 0 25 24"><path stroke="currentColor" stroke-linecap="round" stroke-linejoin="round" stroke-width="2" d="m6.37 12.437-1.278 1.278m-.134-4.687H3.15m1.942-4.686L6.37 5.62M9.778 2.4v1.808m4.687.134L13.186 5.62m3.582 10.376 4.602-1.607c.863-.3.896-1.509.051-1.844l-10.53-3.667c-.79-.314-1.587.462-1.292 1.261l3.447 10.823c.314.853 1.522.85 1.845-.004z"/></svg>
